svg/Gov-Webicons/gov-fda.svg

<?xml version="1.0" encoding="UTF-8" standalone="no"?>
<!-- Created with Inkscape (http://www.inkscape.org/) -->
<svg
   xmlns:dc="http://purl.org/dc/elements/1.1/"
   xmlns:cc="http://web.resource.org/cc/"
   xmlns:rdf="http://www.w3.org/1999/02/22-rdf-syntax-ns#"
   xmlns:svg="http://www.w3.org/2000/svg"
   xmlns="http://www.w3.org/2000/svg"
   xmlns:sodipodi="http://sodipodi.sourceforge.net/DTD/sodipodi-0.dtd"
   xmlns:inkscape="http://www.inkscape.org/namespaces/inkscape"
   id="svg2"
   sodipodi:version="0.32"
   inkscape:version="0.44"
   width="500"
   height="215"
   version="1.0"
   sodipodi:docbase="D:\wiki_svg"
   sodipodi:docname="Food_and_Drug_Administration_logo.png.svg">
  <metadata
     id="metadata7">
    <rdf:RDF>
      <cc:Work
         rdf:about="">
        <dc:format>image/svg+xml</dc:format>
        <dc:type
           rdf:resource="http://purl.org/dc/dcmitype/StillImage" />
      </cc:Work>
    </rdf:RDF>
  </metadata>
  <defs
     id="defs5" />
  <sodipodi:namedview
     inkscape:window-height="573"
     inkscape:window-width="853"
     inkscape:pageshadow="2"
     inkscape:pageopacity="0.0"
     guidetolerance="3.5"
     gridtolerance="10.0"
     objecttolerance="22.8"
     borderopacity="1.0"
     bordercolor="#666666"
     pagecolor="#ffffff"
     id="base"
     showguides="false"
     inkscape:guide-bbox="true"
     inkscape:zoom="1"
     inkscape:cx="229.29464"
     inkscape:cy="175.52144"
     inkscape:window-x="11"
     inkscape:window-y="97"
     inkscape:current-layer="svg2"
     inkscape:guide-points="true"
     width="500px"
     inkscape:showpageshadow="false"
     height="215px">
    <sodipodi:guide
       orientation="horizontal"
       position="21.885566"
       id="guide1873" />
    <sodipodi:guide
       orientation="horizontal"
       position="132.17165"
       id="guide1875" />
    <sodipodi:guide
       orientation="horizontal"
       position="119.29779"
       id="guide1877" />
    <sodipodi:guide
       orientation="horizontal"
       position="114.57737"
       id="guide1879" />
    <sodipodi:guide
       orientation="horizontal"
       position="87.542263"
       id="guide1881" />
    <sodipodi:guide
       orientation="horizontal"
       position="74.239272"
       id="guide1883" />
    <sodipodi:guide
       orientation="horizontal"
       position="68.660598"
       id="guide1885" />
    <sodipodi:guide
       orientation="horizontal"
       position="55.786736"
       id="guide1887" />
    <sodipodi:guide
       orientation="horizontal"
       position="53.211964"
       id="guide1889" />
    <sodipodi:guide
       orientation="horizontal"
       position="40.338101"
       id="guide1891" />
    <sodipodi:guide
       orientation="horizontal"
       position="35.188557"
       id="guide1893" />
    <sodipodi:guide
       orientation="vertical"
       position="29.609883"
       id="guide1895" />
    <sodipodi:guide
       orientation="vertical"
       position="42.054616"
       id="guide1897" />
    <sodipodi:guide
       orientation="vertical"
       position="46.345904"
       id="guide1899" />
    <sodipodi:guide
       orientation="vertical"
       position="59.219766"
       id="guide1901" />
    <sodipodi:guide
       orientation="vertical"
       position="94.408322"
       id="guide1903" />
    <sodipodi:guide
       orientation="vertical"
       position="99.128739"
       id="guide1905" />
    <sodipodi:guide
       orientation="vertical"
       position="112.0026"
       id="guide1907" />
    <sodipodi:guide
       orientation="vertical"
       position="117.58127"
       id="guide1909" />
    <sodipodi:guide
       orientation="vertical"
       position="130.88427"
       id="guide1911" />
    <sodipodi:guide
       orientation="vertical"
       position="217.13914"
       id="guide1915" />
    <sodipodi:guide
       orientation="vertical"
       position="235.59168"
       id="guide1917" />
  </sodipodi:namedview>
  <path
     id="path1937"
     style="fill:black;fill-opacity:1;fill-rule:evenodd;stroke:none;stroke-width:1px;stroke-linecap:butt;stroke-linejoin:miter;stroke-opacity:1"
     d="M 35.653168,203.27756 L 14.037999,203.27756 L 14.037999,11.722441 C 14.037999,11.722441 168.49037,11.722441 204.06575,11.722441 C 287.42108,11.722441 300.57481,86.603465 300.57481,86.603465 L 347.34982,11.722441 L 396.36479,11.722441 L 485.962,156.96365 L 457.89431,203.27756 L 339.75623,203.27756 L 339.75623,180.17169 L 471.89292,180.17169 L 371.80631,11.722441 C 371.80631,11.722441 305.84277,126.50644 291.68112,148.86697 C 277.51945,171.22749 250.91774,203.27756 205.35371,203.27756 C 169.57687,203.27756 134.78481,203.27756 134.78481,203.27756 L 134.78481,89.238905 L 157.14532,89.238905 L 157.14532,180.17169 C 157.14532,180.17169 185.83021,180.17169 208.57451,180.17169 C 231.31881,180.17169 280.12818,160.79258 280.12818,106.0093 C 280.12818,51.226023 227.95364,34.082957 210.81057,34.082957 C 193.66751,34.082957 35.653168,34.082957 35.653168,34.082957 L 35.653168,203.27756 z M 43.106674,203.27756 L 43.106674,122.03434 L 126.58595,122.03434 L 126.58595,144.39486 L 65.467193,144.39486 L 65.467193,203.27756 L 43.106674,203.27756 z M 126.58595,112.34478 L 126.58595,89.238905 L 65.467193,89.238905 L 65.467193,64.731201 C 65.467193,64.731201 185.02074,64.731201 206.10244,64.731201 C 227.18414,64.731201 249.5688,81.785401 249.5688,106.75466 C 249.5688,131.7239 226.94358,148.86697 210.81057,148.86697 C 189.94076,148.86697 188.88668,148.86697 188.88668,148.86697 L 188.88668,89.238905 L 165.78079,89.238905 L 165.78079,171.22749 C 165.78079,171.22749 186.95936,171.22749 210.81057,171.22749 C 239.33059,171.22749 272.302,146.4731 272.302,107.5 C 272.302,68.8993 242.31607,42.28182 206.45818,42.28182 C 168.07262,42.28182 43.106674,42.28182 43.106674,42.28182 L 43.106674,112.34478 L 126.58595,112.34478 z M 269.32061,203.27756 L 371.80631,34.082957 L 456.03094,171.22749 L 339.75623,171.22749 L 339.75623,148.86697 L 415.03664,148.86697 L 371.80631,78.431322 L 300.62532,203.27756 L 269.32061,203.27756 z "
     sodipodi:nodetypes="cccscccccccccssccccssscccccccccccccsssccccssscccccccccccc" />
</svg>

<svg xmlns="http://www.w3.org/2000/svg" viewBox="0 0 500 215"><path d="m35.653 203.28h-21.615v-191.56c0 0 154.45 0 190.03 0 83.36 0 96.51 74.881 96.51 74.881l46.775-74.881h49.01l89.6 145.24-28.07 46.31h-118.14v-23.11h132.14l-100.09-168.45c0 0-65.964 114.78-80.13 137.14-14.162 22.361-40.763 54.41-86.33 54.41-35.777 0-70.57 0-70.57 0v-114.04h22.361v90.93c0 0 28.685 0 51.43 0 22.744 0 71.55-19.379 71.55-74.16 0-54.783-52.17-71.926-69.32-71.926-17.14 0-175.16 0-175.16 0v169.19m7.454 0v-81.24h83.48v22.361h-61.12v58.883h-22.361m83.48-90.93v-23.11h-61.12v-24.508c0 0 119.55 0 140.64 0 21.08 0 43.47 17.05 43.47 42.02 0 24.969-22.625 42.11-38.758 42.11-20.87 0-21.924 0-21.924 0v-59.63h-23.11v81.989c0 0 21.18 0 45.03 0 28.52 0 61.49-24.754 61.49-63.727 0-38.601-29.986-65.22-65.844-65.22-38.39 0-163.35 0-163.35 0v70.06h83.48m142.73 90.93l102.49-169.19 84.22 137.14h-116.27v-22.361h75.28l-43.23-70.44-71.18 124.85h-31.3" fill-rule="evenodd"/></svg>
